public/avatar/shoe/41.svg

<svg xmlns:xlink="http://www.w3.org/1999/xlink" height="38.3" width="36.05" xmlns="http://www.w3.org/2000/svg"><use height="15.3" transform="translate(9.05 12)" width="22.25" xlink:href="#a"/><defs><g id="a"><path d="M7.05 5.1q.2 2.55-1.5 3.55-1.5.85-4.3 1.7-8.35 2.7-13.95 1l-1.25-.65q-.4-.4-.3-1.75l.2-1.6q1-1.8 3.95-3.8l1.7-1.3q1.25-.85 3.95-1.8l4.3-.75Q4.6-.55 5.9 1.6 6.75 3 7.05 5.1" fill="#fff" fill-rule="evenodd" transform="translate(14.75 2.85)"/><path d="m-2.45 2.7-1.3-.05q-2.7-.35-2.6-.85.05-.9 3.2-1.55l4-.45q4.9.25 5.05 1.7.25 2.05-3.2 2.4L.05 3.6q-1.9-.85-2.5-.9" fill="#b2b2b2" fill-rule="evenodd" transform="translate(14.75 2.85)"/><path d="M21.75 7.95Q22 10.5 20.3 11.5L16 13.15Q7.65 15.9 2 14.2l-1.25-.65q-.35-.4-.3-1.75l.25-1.6q1-1.8 3.95-3.8l1.7-1.3q1.25-.85 3.95-1.8l4.25-.8q4.8-.2 6.1 1.9.8 1.45 1.1 3.55Z" fill="none" stroke="#333" stroke-linecap="round" stroke-linejoin="round" stroke-width=".95"/><path d="M-1.55-1q.25.65-1.35 3.95l-5.15 1.8q-.7-.25-2.15-2.25-1.35-1.8-1.45-2.7-.15-.95.75-1.6.95-.75 2.35-.5l2.05.55 2-.65Q-2-2.45-1.55-1" fill="#fff" fill-rule="evenodd" transform="translate(14.75 2.85)"/><path d="M6.7 7.6Q6 7.35 4.55 5.35 3.2 3.55 3.1 2.65q-.15-.95.75-1.6Q4.8.3 6.2.55l2.05.55 2-.65q2.5-.05 2.95 1.4.25.65-1.35 3.95" fill="none" stroke="#333" stroke-linecap="round" stroke-linejoin="round" stroke-width=".95"/><path d="m-8.7 2.7 2.85 2.15-1.95 2.2-2.5-2.5 1.6-1.85" fill="#fff" fill-rule="evenodd" transform="translate(14.75 2.85)"/><path d="m-12.75 5.7 5.25.45q2.25.25 3.3 2.55.55 1.45.15 3-6.85.6-8.4-.05-1.9-.85-1.9-1.95l.3-2.35 1.3-1.65" fill="#333" fill-rule="evenodd" transform="translate(14.75 2.85)"/><path d="m-7.45 6.35 3.7-2.45-2.05 3.7-1.65-1.25m8.3 3.8Q3.7 7.9 4.6 6.25q.85-1.65 1.6-4.3Q7.55 6 6.95 7.3q-.6 1.35-4.15 2.55l-1.95.3" fill="#333" fill-rule="evenodd" transform="translate(14.75 2.85)"/><path d="m5.75 4.05-8.9 6.85q-1.2.9-1.85.45l.3-2.65L.7 6.55q1.2-.4 5.05-2.5" fill="#333" fill-rule="evenodd" transform="translate(14.75 2.85)"/></g></defs></svg>

<?xml version="1.0" encoding="UTF-8" standalone="no"?>
<svg xmlns:xlink="http://www.w3.org/1999/xlink" height="38.3px" width="36.05px" xmlns="http://www.w3.org/2000/svg">
  <g transform="matrix(1.0, 0.0, 0.0, 1.0, 23.8, 14.85)">
    <use height="15.3" transform="matrix(1.0, 0.0, 0.0, 1.0, -14.75, -2.85)" width="22.25" xlink:href="#shape0"/>
  </g>
  <defs>
    <g id="shape0" transform="matrix(1.0, 0.0, 0.0, 1.0, 14.75, 2.85)">
      <path d="M7.05 5.1 Q7.25 7.65 5.55 8.65 4.05 9.5 1.25 10.35 -7.1 13.05 -12.7 11.35 L-13.95 10.7 Q-14.35 10.3 -14.25 8.95 L-14.05 7.35 Q-13.05 5.55 -10.1 3.55 L-8.4 2.25 Q-7.15 1.4 -4.45 0.45 L-0.15 -0.3 Q4.6 -0.55 5.9 1.6 6.75 3.0 7.05 5.1" fill="#ffffff" fill-rule="evenodd" stroke="none"/>
      <path d="M-2.45 2.7 L-3.75 2.65 Q-6.45 2.3 -6.35 1.8 -6.3 0.9 -3.15 0.25 L0.85 -0.2 Q5.75 0.05 5.9 1.5 6.15 3.55 2.7 3.9 L0.05 3.6 Q-1.85 2.75 -2.45 2.7" fill="#b2b2b2" fill-rule="evenodd" stroke="none"/>
      <path d="M7.0 5.1 Q7.25 7.65 5.55 8.65 L1.25 10.3 Q-7.1 13.05 -12.75 11.35 L-14.0 10.7 Q-14.35 10.3 -14.3 8.95 L-14.05 7.35 Q-13.05 5.55 -10.1 3.55 L-8.4 2.25 Q-7.15 1.4 -4.45 0.45 L-0.2 -0.35 Q4.6 -0.55 5.9 1.55 6.7 3.0 7.0 5.1 Z" fill="none" stroke="#333333" stroke-linecap="round" stroke-linejoin="round" stroke-width="0.9500000000000001"/>
      <path d="M-1.55 -1.0 Q-1.3 -0.35 -2.9 2.95 L-8.05 4.75 Q-8.75 4.5 -10.2 2.5 -11.55 0.7 -11.65 -0.2 -11.8 -1.15 -10.9 -1.8 -9.95 -2.55 -8.55 -2.3 L-6.5 -1.75 -4.5 -2.4 Q-2.0 -2.45 -1.55 -1.0" fill="#ffffff" fill-rule="evenodd" stroke="none"/>
      <path d="M-8.05 4.75 Q-8.75 4.5 -10.2 2.5 -11.55 0.7 -11.65 -0.2 -11.8 -1.15 -10.9 -1.8 -9.95 -2.55 -8.55 -2.3 L-6.5 -1.75 -4.5 -2.4 Q-2.0 -2.45 -1.55 -1.0 -1.3 -0.35 -2.9 2.95" fill="none" stroke="#333333" stroke-linecap="round" stroke-linejoin="round" stroke-width="0.9500000000000001"/>
      <path d="M-8.7 2.7 L-5.85 4.85 -7.8 7.05 -10.3 4.55 -8.7 2.7" fill="#ffffff" fill-rule="evenodd" stroke="none"/>
      <path d="M-12.75 5.7 L-7.5 6.15 Q-5.25 6.4 -4.2 8.7 -3.65 10.15 -4.05 11.7 -10.9 12.3 -12.45 11.65 -14.35 10.8 -14.35 9.7 L-14.05 7.35 -12.75 5.7" fill="#333333" fill-rule="evenodd" stroke="none"/>
      <path d="M-7.45 6.35 L-3.75 3.9 -5.8 7.6 -7.45 6.35" fill="#333333" fill-rule="evenodd" stroke="none"/>
      <path d="M0.85 10.15 Q3.7 7.9 4.6 6.25 5.45 4.6 6.2 1.95 7.55 6.0 6.95 7.3 6.35 8.65 2.8 9.85 L0.85 10.15" fill="#333333" fill-rule="evenodd" stroke="none"/>
      <path d="M5.75 4.05 L-3.15 10.9 Q-4.35 11.8 -5.0 11.35 L-4.7 8.7 0.7 6.55 Q1.9 6.15 5.75 4.05" fill="#333333" fill-rule="evenodd" stroke="none"/>
    </g>
  </defs>
</svg>
